frontend/svgs/biz027.svg

<?xml version="1.0" encoding="UTF-8"?> <svg width="100px" height="100px" viewBox="0 0 100 100" version="1.1" xmlns="http://www.w3.org/2000/svg" xmlns:xlink="http://www.w3.org/1999/xlink"> <g id="27.-Team" stroke="none" stroke-width="1" fill="none" fill-rule="evenodd" stroke-linecap="round" stroke-linejoin="round"> <path d="M2,77.422198 C8.2359815,73.0497116 16.0110268,71.3530984 16.6446001,69.8385927 C17.6917439,67.33548 17.6917439,66.169811 17.6917439,63.1694048 C17.6917439,60.1689986 13.7842679,55.0097166 13.7842679,55.0097166 C13.7842679,55.0097166 11.2865942,53.9192763 10.5844035,51.1253357 C10.1122441,49.2466644 11.1558983,47.1054561 11.7098961,46.7643194 C10.229052,42.2458496 7.27148819,26.6685352 24.192967,26.1037854 C24.266951,26.1016018 24.3413149,26.0997071 24.4160647,26.1103213 C28.0654318,26.2321621 30.7835376,27.061191 32.787574,28.3309088 C33.0486495,31.1515785 33.6667313,33.6056303 34.1567884,35.1009315 C33.4569677,35.531862 32.1386037,38.2366776 32.7350445,40.6098513 C33.6220652,44.139211 36.7771748,45.5166762 36.7771748,45.5166762 C36.7771748,45.5166762 36.8800828,45.6525519 37.056181,45.8964748 C36.966542,46.219251 36.8777757,46.5111937 36.7937624,46.7675417 C37.3477602,47.1086784 38.3914144,49.2498868 37.919255,51.128558 C37.2170644,53.9224987 34.7193906,55.0129389 34.7193906,55.0129389 C34.7193906,55.0129389 30.8119146,60.1722209 30.8119146,63.1726271 C30.8119146,65.6740365 30.8119146,66.9002312 31.4186795,68.6893237 C23.3532694,72.1956199 12.6976174,78.0448663 12,89.8419626 L49.7925347,89.8419626 L88,89.8460331 C87.2893471,77.8285002 76.2450377,71.9831729 68.1319928,68.4992723 C68.6917439,66.785446 68.6917439,65.5588482 68.6917439,63.1237886 C68.6917439,60.1233823 64.7842679,54.9641003 64.7842679,54.9641003 C64.7842679,54.9641003 62.2865942,53.8736601 61.5844035,51.0797194 C61.1122441,49.2010482 62.1558983,47.0598398 62.7098961,46.7187031 C62.6749431,46.6120518 62.6391674,46.4992393 62.6028498,46.3806086 C62.9803356,45.8409207 63.2228252,45.5207467 63.2228252,45.5207467 C63.2228252,45.5207467 66.3779348,44.1432815 67.2649555,40.6139218 C67.8613963,38.2407481 66.5430323,35.5359325 65.8432116,35.105002 C66.3528267,33.5500237 67.0008894,30.9582406 67.244639,27.9956327 C69.2106797,26.8870147 71.8028808,26.1713123 75.192967,26.0581691 C75.266951,26.0559855 75.3413149,26.0540908 75.4160647,26.0647051 C92.2321703,26.6261412 89.2746065,42.2034557 87.7937624,46.7219254 C88.3477602,47.0630621 89.3914144,49.2042705 88.919255,51.0829417 C88.2170644,53.8768824 85.7193906,54.9673227 85.7193906,54.9673227 C85.7193906,54.9673227 81.8119146,60.1266047 81.8119146,63.1270109 C81.8119146,66.1274171 81.8119146,67.2930861 82.8590584,69.7961988 C83.5095583,71.3511661 91.6882113,73.0981013 98,77.7360281 L98,90.0556882 L75.0875939,90.0532472 L54.3307385,90.0532472 C54.33175,90.0695124 54.3327375,90.085792 54.333701,90.1020858 L24.0875939,90.0988635 L2,90.0988635 L2,77.422198 Z" id="Layer-2" stroke="#C8D6E5" stroke-width="4" fill="#C8D6E5"></path> <path d="M34.1567884,35.1009315 C33.4569677,35.531862 32.1386037,38.2366776 32.7350445,40.6098513 C33.6220652,44.139211 36.7771748,45.5166762 36.7771748,45.5166762 C36.7771748,45.5166762 41.7131738,52.0339806 41.7131738,55.8241515 C41.7131738,59.6143225 41.7131738,61.086818 40.3904016,64.2487982 C39.0676293,67.4107783 13.1023187,71.201143 12,89.8419626 L49.7925347,89.8419626 L88,89.8460331 C86.8976813,71.2052135 60.9323707,67.4148488 59.6095984,64.2528687 C58.2868262,61.0908885 58.2868262,59.618393 58.2868262,55.828222 C58.2868262,52.0380511 63.2228252,45.5207467 63.2228252,45.5207467 C63.2228252,45.5207467 66.3779348,44.1432815 67.2649555,40.6139218 C67.8613963,38.2407481 66.5430323,35.5359325 65.8432116,35.105002 C67.7138424,29.397184 71.449894,9.71962026 50.2074653,9.01040328 C50.11304,8.99699513 50.0191021,8.99938857 49.925644,9.00214691 C28.550106,9.71554976 32.2861576,29.3931135 34.1567884,35.1009315 Z" id="Layer-1" stroke="#A4B8CE" stroke-width="4" fill="#A4B8CE"></path> </g> </svg>

<svg width="100" height="100" xmlns="http://www.w3.org/2000/svg"><g fill="none" fill-rule="evenodd" stroke-linecap="round" stroke-linejoin="round" stroke-width="4"><path d="M2 77.422c6.236-4.372 14.011-6.069 14.645-7.583 1.047-2.504 1.047-3.67 1.047-6.67s-3.908-8.16-3.908-8.16-2.497-1.09-3.2-3.884c-.472-1.878.572-4.02 1.126-4.36-1.48-4.52-4.439-20.096 12.483-20.661.074-.002.148-.004.223.006 3.65.122 6.368.951 8.372 2.22.26 2.822.879 5.276 1.369 6.77-.7.432-2.018 3.137-1.422 5.51.887 3.53 4.042 4.907 4.042 4.907s.103.136.28.38c-.09.322-.18.614-.263.87.554.342 1.597 2.483 1.125 4.362-.702 2.793-3.2 3.884-3.2 3.884s-3.907 5.16-3.907 8.16c0 2.501 0 3.727.607 5.516C23.353 72.196 12.698 78.045 12 89.842h37.793L88 89.846c-.71-12.017-11.755-17.863-19.868-21.347.56-1.714.56-2.94.56-5.375 0-3-3.908-8.16-3.908-8.16s-2.497-1.09-3.2-3.884c-.472-1.879.572-4.02 1.126-4.361-.035-.107-.07-.22-.107-.338.377-.54.62-.86.62-.86s3.155-1.378 4.042-4.907c.596-2.373-.722-5.078-1.422-5.509.51-1.555 1.158-4.147 1.402-7.11 1.966-1.108 4.558-1.824 7.948-1.937.074-.002.148-.004.223.007 16.816.561 13.859 16.138 12.378 20.657.554.341 1.597 2.482 1.125 4.36-.702 2.795-3.2 3.885-3.2 3.885s-3.907 5.16-3.907 8.16 0 4.166 1.047 6.67c.65 1.554 8.83 3.301 15.141 7.939v12.32l-22.912-.003H54.33c0 .017.002.033.003.05l-30.246-.004H2V77.422z" stroke="#C8D6E5" fill="#C8D6E5"/><path d="M34.157 35.1c-.7.432-2.018 3.137-1.422 5.51.887 3.53 4.042 4.907 4.042 4.907s4.936 6.517 4.936 10.307 0 5.263-1.323 8.425C39.068 67.41 13.102 71.2 12 89.842h37.793L88 89.846c-1.102-18.64-27.068-22.431-28.39-25.593-1.323-3.162-1.323-4.635-1.323-8.425 0-3.79 4.936-10.307 4.936-10.307s3.155-1.378 4.042-4.907c.596-2.373-.722-5.078-1.422-5.509C67.713 29.397 71.45 9.72 50.207 9.01a1.646 1.646 0 00-.281-.008c-21.376.714-17.64 20.391-15.77 26.099z" stroke="#A4B8CE" fill="#A4B8CE"/></g></svg>
